!!!!SEGMENT: pl-kk--kk-i-6--027-001_anonim--officium-octavi-toni-kyrie.krn
!!!cenid: 16xx:994
!!!COM: Anonim
!!!COM-rismID: pe30004985
!!!CDT:
!!!CNT:
!!!OPR: Officium Octavi Toni
!!!OTL: Kyrie
!!!OMV: 001
!!!PDT:
!!!AGN: Sacred
!!!SMS-siglum: PL-Kk
!!!SMS-shelfmark: Kk.I.6
!!!SMS-shelfwork: 027-001 M
!!!SMS-variant:
!!!SMS-altvar:
!!!NIFC-rismSourceID: 1001135513
!!!NIFC-rismChildID: 1001136049
!!!NIFC-islandoraID: pl-kk:1634
!!!URL-pdf-islandora: https://repozytorium.nifc.pl/islandora/object/pl-kk%3A1634/datastream/PDF/view
!!!URL-scan: https://polish.musicsources.pl/pl/lokalizacje/galeria/rekopisy/6133 @EN{Scan on Polish Music Sources Website} @PL{Skany w portalu Dziedzictwo Muzyki Polskiej w otwartym dostępie}
!!!ONB-nifc: UWAGA: C (skan 0033-0037, s. 62-71), T (skan 0136-0141, s. 76-86), B (skan 0246-0251, s. 75-84) Części Officium: 1. Kyrie, 2. Et in terra, 3. Patrem, 4. Sanctus, 5. Agnus Dei
!!!AIN: 1 empty 1 tenor 1 vox
!!!key:
**kern	**text	**kern	**text	**kern	**text
*part3	*part3	*part2	*part2	*part1	*part1
*staff3	*staff3	*staff2	*staff2	*staff1	*staff1
*Iempty	*	*Itenor	*	*Ivox	*
*I"Baſsus.	*	*I"Tenor.	*	*I"Cantus.	*
*I'B	*	*I'T	*	*I'S	*
*clefF3	*	*clefC3	*	*clefC4	*
*k[]	*	*k[]	*	*k[]	*
*C:	*	*C:	*	*C:	*
*M2/1	*	*M2/1	*	*M2/1	*
*met(C|)	*	*met(C|)	*	*met(C|)	*
=1-	=1-	=1-	=1-	=1-	=1-
1rF	.	00r	.	1.G	Ky-
1.C	Ky-	.	.	.	.
!	!	!	!	!LO:TX:t=P:problem=kreska pseudotaktowa	!
.	.	.	.	2G/	-ri-
=2-	=2-	=2-	=2-	=2-	=2-
.	.	.	.	1c	-e
2C/	-rie	.	.	.	.
*	*	*	*	*lig	*
1F	.	.	.	1A	e-
=3-	=3-	=3-	=3-	=3-	=3-
*	*	*	*	*col	*
!	!	!	!	!LO:N:vis=1	!
1D	e-	1rc	.	2.d\	.
*	*	*	*	*Xlig	*
*	*	*	*	*Xcol	*
!	!	!	!	!LO:TX:t=P:problem=4\middle or left&colon; global	!
!	!	!	!	!LO:TX:t=P:problem=kreska pseudotaktowa	!
.	.	.	.	4c\	.
!LO:TX:t=P:problem=all\middle&colon; global	!	!	!	!	!
2.G\	.	2rA	.	4B\	.
.	.	.	.	4A/	.
.	.	1G/	Ky-	1B\	.
!LO:TX:t=P:problem=4/middle or right&colon; global	!	!	!	!	!
4F/	.	.	.	.	.
=4-	=4-	=4-	=4-	=4-	=4-
4E/	.	.	.	.	.
4D/	.	.	.	.	.
2E/	.	2G/	-ri-	1G	.
2C/	-ley-	1c	.	.	.
!	!	!	!	!LO:TX:t=P:problem=2\middle&colon; global	!
!	!	!	!	!LO:TX:t=P::problem=kreska pseudotaktowa&colon;między nutą i kropką	!
2C/	-son	.	.	2.c\	.
=5-	=5-	=5-	=5-	=5-	=5-
*	*ij	*	*	*	*
2F/	Ky-	1A	-e	.	.
.	.	.	.	4B\	.
2E/	-rie	.	.	4A\	.
!	!	!	!	!LO:TX:t=P:problem=kreska pseudotaktowa	!
.	.	.	.	4G/	.
!	!	!LO:TX:t=P:problem=2\middle&colon; global	!	!	!
1D	e-	2.d\	e-	2F/	.
!	!	!	!	!LO:TX:t=P:problem=kreska pseudotaktowa	!
.	.	.	.	2A/	-ley-
!	!	!LO:TX:t=P:problem=4/middle or right&colon; global	!	!	!
.	.	4c/	.	.	.
=6-	=6-	=6-	=6-	=6-	=6-
2.E/	.	4B/	.	1G,<	-ſon
.	.	4A/	.	.	.
.	.	1B	-ley-	.	.
*custos:G	*	*	*	*	*
4F/	.	.	.	.	.
*	*	*	*	*custos:d	*
!LO:LB:g=original	!	!	!	!	!
2G\	.	.	.	1G	ky-
2C/	.	2c/	-son	.	.
!	!	!	!	!LO:LB:g=original	!
=7-	=7-	=7-	=7-	=7-	=7-
!	!	!	!	!LO:TX:t=P:problem=kreska pseudotaktowa	!
1D	-ley-	2A/	ky-	1d	-ri-
.	.	2A/	-ri-	.	.
1G	-son	2G/	-e	2B\	-e
*	*Xij	*	*	*	*
.	.	1d\	.	2B\	e-
=8-	=8-	=8-	=8-	=8-	=8-
2r	.	.	.	1G	-ley-
1G	ky-	2.B/	e-	.	.
.	.	.	.	1d	-ſon
*	*	*custos:g	*	*	*
.	.	4G/	.	.	.
!	!	!LO:LB:g=original	!	!	!
2G\	-ri-	2.g\	.	.	.
=9-	=9-	=9-	=9-	=9-	=9-
1c	-e	.	.	0r	.
!	!	!LO:TX:t=P:problem=4\middle&colon; global	!	!	!
.	.	4f\	.	.	.
.	.	4e\	.	.	.
.	.	4d\	.	.	.
*lig	*	*	*	*	*
1A	e-	2c/	.	.	.
.	.	2e\	.	.	.
=10-	=10-	=10-	=10-	=10-	=10-
*col	*	*	*	*	*
!LO:N:vis=1	!	!	!	!	!
2.d\	.	2.f\	.	1r	.
*Xlig	*	*	*	*	*
*Xcol	*	*	*	*	*
4c\	.	4e\	.	.	.
2B\	.	2d\	.	2r	.
*	*	*	*	*	*ij
2c\	-ley	2e\	.	1c\	Ky-
=11-	=11-	=11-	=11-	=11-	=11-
1A	.	1c	.	.	.
!	!	!	!	!LO:TX:t=P:problem=kreska pseudotaktowa	!
.	.	.	.	2A/	-ri-
1G	son	2d\	.	1B	-e
.	.	2d\	.	.	.
=12-	=12-	=12-	=12-	=12-	=12-
0r	.	2e\	.	2.c\	e-
.	.	1g	-ley-	.	.
!	!	!	!	!LO:TX:t=P:problem=kreska pseudotaktowa	!
.	.	.	.	4B\	.
.	.	.	.	1A	.
.	.	2f\	.	.	.
=13-	=13-	=13-	=13-	=13-	=13-
2r	.	1g	-son	2G/	.
*	*ij	*	*	*	*
!	!	!	!	!LO:TX:t=P:problem=kreska pseudotaktowa	!
1C	ky-	.	.	2.c\	.
.	.	2r	.	.	.
.	.	.	.	4B\	.
*	*	*	*ij	*	*
2C/	-ri-	1c\	ky-	4A/	.
!	!	!	!	!LO:TX:t=P:problem=kreska pseudotaktowa	!
.	.	.	.	4G/	.
=14-	=14-	=14-	=14-	=14-	=14-
1F	-e	.	.	2A/	.
.	.	2c/	-ri-	1A	.
1D	e-	1d	-e	.	.
.	.	.	.	2F/	.
=15-	=15-	=15-	=15-	=15-	=15-
*lig	*	*	*	*lig	*
1E	-ley-	2.B/	e-	1G	-ley-
.	.	4c/	.	.	.
1D	.	1d	-ley-	1A	.
*Xlig	*	*	*	*Xlig	*
=16-	=16-	=16-	=16-	=16-	=16-
0G;;l	-son	0d;;l	-son	0Gl;;	-ſon
*	*Xij	*	*Xij	*	*Xij
!LO:LB:g=original	!	!LO:LB:g=original	!	!LO:LB:g=original	!
=17-	=17-	=17-	=17-	=17-	=17-
*M2/1	*	*M2/1	*	*M2/1	*
*met(C|)	*	*met(C|)	*	*met(C|)	*
1rF	.	1G	CHri-	00r	.
1C	CHri-	1.c	.	.	.
=18-	=18-	=18-	=18-	=18-	=18-
1.F	.	.	.	.	.
.	.	2B/	-ſte	.	.
.	.	2A/	.	.	.
2E/	-ſte	2G/	.	.	.
=19-	=19-	=19-	=19-	=19-	=19-
2D/	.	2A/	.	0r	.
2C/	e-	1c	e-	.	.
1D	-ley-	.	.	.	.
.	.	2B/	-ley-	.	.
=20-	=20-	=20-	=20-	=20-	=20-
!	!	!	!	!LO:TX:t=P:problem=kreska pseudotaktowa	!
0C	-ſon	1c	-ſon	1G	CHri-
.	.	0r	.	1.c	-ſte
=21-	=21-	=21-	=21-	=21-	=21-
0rF	.	.	.	.	.
!	!	!	!	!LO:TX:t=P:problem=kreska pseudotaktowa	!
.	.	.	.	2B\	.
.	.	1r	.	2A/	.
.	.	.	.	2G/	e-
=22-	=22-	=22-	=22-	=22-	=22-
*	*ij	*	*	*	*
1D	CHri-	1d	Chri-	1A	-ley-
2E/	.	2.B/	.	1G	-ſon
1G\	-ſte	.	.	.	.
.	.	8A/L	-ſte	.	.
.	.	8G/J	.	.	.
=23-	=23-	=23-	=23-	=23-	=23-
.	.	4A/	.	0rA	.
.	.	4B/	.	.	.
2F/	.	4c/	.	.	.
.	.	4A/	.	.	.
2.G\	e-	4B/	.	.	.
.	.	4c/	.	.	.
.	.	1d\	e-	.	.
4F/	.	.	.	.	.
=24-	=24-	=24-	=24-	=24-	=24-
1E	-ley-	.	.	1G	Chri-
*	*	*custos:d	*	*	*
.	.	2c/	-ley-	.	.
!	!	!LO:LB:g=original	!	!	!
1D	-ſon	2d,<\	-ſon	1A	-ſte
*	*Xij	*	*	*	*
*	*	*	*ij	*	*
.	.	2d\	Chri-	.	.
=25-	=25-	=25-	=25-	=25-	=25-
*custos:D	*	*	*	*	*
1rF	.	2c/	-ſte	2.c\	.
.	.	2e\	.	.	.
!	!	!	!	!LO:TX:t=P:problem=kreska pseudotaktowa	!
.	.	.	.	4B\	.
!LO:LB:g=original	!	!	!	!	!
1D	Chri-	2.d\	.	1A	e-
.	.	4c/	.	.	.
=26-	=26-	=26-	=26-	=26-	=26-
2E/	.	2B/	e-	2G/	.
2.C/	-ſte	2c/	-ley-	1c	.
.	.	1G	-ſon	.	.
4D/	e-	.	.	.	.
4E/	.	.	.	4B\	.
*	*	*	*	*custos:B	*
!	!	!	!	!LO:TX:t=P:problem=kreska pseudotaktowa	!
4F/	.	.	.	4A/	.
!	!	!	!	!LO:LB:g=original	!
=27-	=27-	=27-	=27-	=27-	=27-
2.G\	.	2r	.	2.B\	.
.	.	2.g\	Chri-	.	.
4A\	.	.	.	4c\	.
2B\	.	.	.	2d\	.
.	.	4f\	.	.	.
!	!	!	!	!LO:TX:t=P:problem=kreska pseudotaktowa	!
2.c\	.	2e\	-ſte	2c\	.
=28-	=28-	=28-	=28-	=28-	=28-
.	.	1d	.	1G	-ley-
8B\L	.	.	.	.	.
8A\J	.	.	.	.	.
2B\	.	.	.	.	.
!	!	!	!	!LO:TX:t=P:problem=kreska pseudotaktowa	!
2c\	.	2e\	e-	1c	-ſon
2A\	-ley-	4d\	.	.	.
.	.	4c/	.	.	.
=29-	=29-	=29-	=29-	=29-	=29-
1G	-ſon	2d\	ley-	2r	.
*	*	*	*	*	*ij
!	!	!	!	!LO:TX:t=P:problem=kreska pseudotaktowa	!
.	.	2.G/	-ſon	2d\	Chri-
2r	.	.	.	4d\	-ſte
.	.	4A/	.	4c\	.
*	*ij	*	*	*	*
2.G\	Chri-	4B/	.	4B\	.
*	*	*custos:d	*	*	*
!	!	!	!	!LO:TX:t=P:problem=kreska pseudotaktowa	!
.	.	4c/	.	4A/	.
!	!	!LO:PB:g=original	!	!	!
=30-	=30-	=30-	=30-	=30-	=30-
.	.	2d\	Chri-	2B\	.
4F/	.	.	.	.	.
!	!	!	!	!LO:TX:t=P:problem=kreska pseudotaktowa	!
4E/	.	2e\	-ſte	2B\	e-
4D/	.	.	.	.	.
2E/	-ſte	2B/	.	2G/	.
!	!	!	!	!LO:TX:t=P:problem=kreska pseudotaktowa	!
2E/	e-	1c\	e-	2G/	-ley-
=31-	=31-	=31-	=31-	=31-	=31-
0D	-ley-	.	.	2.A/	.
.	.	4B/	.	.	.
.	.	4A/	.	4G/	.
.	.	1B	ley-	1F	.
=32-	=32-	=32-	=32-	=32-	=32-
0C;;l	-ſon	0c;;l	-ſon	0G;;l	-ſon
*	*Xij	*	*Xij	*	*Xij
!LO:LB:g=original	!	!LO:LB:g=original	!	!LO:LB:g=original	!
=33-	=33-	=33-	=33-	=33-	=33-
*M2/1	*	*M2/1	*	*M2/1	*
*met(C|)	*	*met(C|)	*	*met(C|)	*
0rF	.	1r	.	00r	.
.	.	1d	Ky-	.	.
=34-	=34-	=34-	=34-	=34-	=34-
!LO:TX:t=P:problem=podwójna kreska pseudotaktowa	!	!	!	!	!
1rF	.	2c/	-ri-	.	.
.	.	2A/	-e	.	.
1G	Ky-	2B/	.	.	.
.	.	2c/	.	.	.
=35-	=35-	=35-	=35-	=35-	=35-
2F/	-ri-	2A/	e-	0r	.
2D/	-e	2d\	.	.	.
2E/	e-	2B/	.	.	.
!LO:TX:t=P:problem=kreska pseudotaktowa	!	!	!	!	!
2E/	-ley-	2G/	-ley-	.	.
=36-	=36-	=36-	=36-	=36-	=36-
1D	-ſon	0A	-ſon	1d	Ky-
1rF	.	.	.	2c\	-ri-
!	!	!	!	!LO:TX:t=P:problem=kreska pseudotaktowa	!
.	.	.	.	2A/	-e
=37-	=37-	=37-	=37-	=37-	=37-
*	*ij	*	*	*	*
1G	Ky-	1G	.	2B\	e-
.	.	.	.	2B\	-ley-
2F/	-ri-	2r	.	1A	-ſon
2D/	-e	2d\	ky-	.	.
=38-	=38-	=38-	=38-	=38-	=38-
1E	e-	2B/	-ri-	1r	.
*	*	*custos:A	*	*	*
.	.	2c/	-e	.	.
!	!	!LO:LB:g=original	!	!	!
1D	-ley-	2.A/	e-	1d	ky-
.	.	4B/	.	.	.
=39-	=39-	=39-	=39-	=39-	=39-
2A\	-ſon	1c	-ley-	2c\	-ri-
!	!	!	!	!LO:TX:t=P:problem=kreska pseudotaktowa	!
2A\	Ky-	.	.	2A/	-e-
2G\	-ri-	2d,<\	-son	1B	-ley-
*	*	*	*ij	*	*
*custos:F	*	*	*	*	*
2E/	-e	2e\	ky-	.	.
!LO:LB:g=original	!	!	!	!	!
=40-	=40-	=40-	=40-	=40-	=40-
!	!	!	!	!LO:TX:t=P:problem=kreska pseudotaktowa	!
1F	e-	2c/	-rie	1A	-ſon
.	.	2d\	e-	.	.
2E/	ley-	1e	-ley-	2r	.
*	*	*	*	*	*ij
!	!	!	!	!LO:TX:t=P:problem=kreska pseudotaktowa	!
2C/	-ſon	.	.	2c\	ky-
=41-	=41-	=41-	=41-	=41-	=41-
2F/	Ky-	2c,</	-son	2A/	-ri-
!	!	!	!	!LO:TX:t=P:problem=kreska pseudotaktowa	!
2D/	-ri-	2d\	ky-	2F/	-e
2.E/	-e	2B/	-rie	2G/	e-
.	.	2e\	e-	1c\	.
4F/	e-	.	.	.	.
=42-	=42-	=42-	=42-	=42-	=42-
1G	-ley-	1d	-ley-	.	.
*	*	*	*	*custos:c	*
.	.	.	.	2B\	.
!	!	!	!	!LO:PB:g=original	!
2C/	-ſon	2c,</	-son	1c	-ley-
*	*Xij	*	*Xij	*	*
2c\	ky-	2e\	ky-	.	.
=43-	=43-	=43-	=43-	=43-	=43-
2B\	-ri-	2d\	ri-	1G	-ſon
*	*	*	*	*	*Xij
2G\	-e-	2B/	-e	.	.
1A	-ley-	4c/	e-	2r	.
.	.	4d\	.	.	.
!	!	!	!	!LO:TX:t=P:problem=kreska pseudotaktowa	!
.	.	4e\	.	2c\	ky-
*	*	*custos:d	*	*	*
.	.	4c/	.	.	.
!	!	!LO:LB:g=original	!	!	!
=44-	=44-	=44-	=44-	=44-	=44-
1G	-ſon	1d	-ley-	2B\	-ri-
.	.	.	.	2G/	-e
2r	.	2c,</	-ſon	2A/	e-
*	*	*	*ij	*	*
!	!	!	!	!LO:TX:t=P:problem=kreska pseudotaktowa	!
2G\	ky-	2G/	ky-	2B\	.
=45-	=45-	=45-	=45-	=45-	=45-
2F/	-ri-	2A/	ri-	2c\	.
2D/	-e	1d	-e	2F/	.
1E	e-	.	.	2G/	.
!	!	!	!	!LO:TX:t=P:problem=kreska pseudotaktowa	!
.	.	2c/	e-	2G/	.
=46-	=46-	=46-	=46-	=46-	=46-
1D	-ley-	1d	.	2A/	.
.	.	.	.	2B\	.
*custos:G	*	*	*	*	*
1C	-son	2G/	.	1c	-ley-
.	.	1c\	-ley-	.	.
!LO:LB:g=original	!	!	!	!	!
=47-	=47-	=47-	=47-	=47-	=47-
!	!	!	!	!LO:TX:t=P:problem=kreska pseudotaktowa	!
2rD	.	.	.	1G	-son
*	*ij	*	*	*	*
2G\	ky-	2B/	-ſon	.	.
2F/	-ri-	2A/	ky-	2r	.
2D/	-e	1d\	ri-	2F/	ky-
=48-	=48-	=48-	=48-	=48-	=48-
1E	e-	.	.	2G/	-ri-
*	*	*	*	*custos:A	*
!	!	!	!	!LO:TX:t=P:problem=kreska pseudotaktowa	!
.	.	2c/	-e	2G/	-e-
!	!	!	!	!LO:LB:g=original	!
1D	-ley-	2d\	e-	1A	-ley-
.	.	2d\	-ley-	.	.
=49-	=49-	=49-	=49-	=49-	=49-
2G\	-son	2B/	-ſon	2G/	-son
2.C/	ky-	1e	ky-	1c	ky-
4C/	-rie	.	.	.	.
!	!	!	!	!LO:TX:t=P:problem=kreska pseudotaktowa	!
2BB/	e-	2d\	-ri-	2d\	-ri-
=50-	=50-	=50-	=50-	=50-	=50-
0C	ley-	2.c/	-e	2.e\	-e
.	.	4d\	e-	4d\	e-
.	.	1e	-ley-	1c	-ley-
=51-	=51-	=51-	=51-	=51-	=51-
0G;;l	-son	0d;;l	-ſon	0B;;l	-son.
*	*Xij	*	*Xij	*	*
=-	=-	=-	=-	=-	=-
*-	*-	*-	*-	*-	*-
!!!system-decoration: [(s1,s2,s3)]
!!!RDF**kern: l = terminal long
!!!RDF**kern: > = above
!!!RDF**kern: < = below
!!!EED: Antoni Szymański
!!!EEV: 2021-03-22
!!!ENC: Tomasz Grochalski
!!!END: 2021-03-08
!!!YEC: Copyright 2022 Narodowy Instytut Fryderyka Chopina (https://polishscores.org)
!!!YEM: License CC-BY-4.0 (https://creativecommons.org/licenses/by/4.0)
